build/images/common/help.svg

<svg width="64" height="64" viewBox="0 0 64 64" fill="none" xmlns="http://www.w3.org/2000/svg">
<path fill-rule="evenodd" clip-rule="evenodd" d="M31.515 18.6729C31.3151 18.1755 31.1152 17.5786 31.2152 16.8821C31.3151 15.0914 32.6145 12.3057 34.0139 13.4996C33.5141 14.6934 31.9148 15.8873 32.6145 17.678C33.8139 17.0811 35.3132 16.1857 35.5132 14.8924C35.913 12.9026 34.1138 11.9077 32.6145 12.6042C32.1147 12.8031 32.1148 13.4996 31.515 13.4001C31.3151 12.0073 33.9139 10.6144 35.4132 11.5098C36.0129 11.9078 36.6126 13.1016 36.7126 13.6985C36.8126 15.7878 34.3137 18.474 33.0143 18.8719C32.3147 19.1704 32.0148 18.9714 31.515 18.6729Z" fill="#232178"/>
<path fill-rule="evenodd" clip-rule="evenodd" d="M26.6173 13.2011C27.0171 13.3006 27.317 13.4996 27.5169 13.6986C27.6169 14.7929 27.8168 15.8873 27.9167 16.9817C29.1161 16.7827 29.1161 13.798 30.9153 14.196C30.0157 16.1857 29.1162 18.1755 27.5169 19.3694C26.2175 18.474 26.9172 15.5888 26.0176 14.2955C25.1181 15.5888 24.4184 16.8822 24.2185 18.8719C23.9186 18.8719 23.8187 19.0709 23.7187 19.2699C23.4189 19.1704 23.2189 18.8719 23.019 18.7724C23.5188 16.2852 24.8182 14.6934 25.318 12.2062C26.1176 11.9078 26.7173 12.2062 26.6173 13.2011Z" fill="#232178"/>
<path fill-rule="evenodd" clip-rule="evenodd" d="M29.8158 37.2772C30.3156 39.5654 26.7173 39.2669 26.6173 41.5551C26.6173 41.9531 26.8172 42.4505 27.0171 42.8485C27.8168 44.2413 29.6159 45.4352 30.4155 46.828C29.5159 48.0218 27.9167 48.4198 25.7178 48.8177C24.3184 49.0167 22.7192 48.7182 21.7196 49.1162C20.7201 49.5141 20.2203 50.708 18.9209 51.0065C13.9233 50.31 17.2217 44.6392 18.4211 42.1521C17.9214 41.6546 16.3222 42.55 16.2222 41.4556C17.0219 40.4607 19.5207 40.6597 21.02 40.6597C21.02 41.0577 20.7201 41.1572 20.82 41.6546C19.6206 42.351 19.0209 43.6444 18.5211 45.0372C21.1199 44.8382 23.1189 43.2464 25.4179 42.4505C24.9181 40.2618 27.5169 38.5705 29.316 37.5756C29.416 37.4761 29.516 37.2772 29.8158 37.2772ZM25.5178 43.0474C23.6187 44.4403 21.5197 45.5346 18.9209 46.2311C18.6211 46.1316 18.6211 45.7336 18.3212 45.6341C17.8215 46.5295 17.1218 48.5193 18.2213 49.4146C18.6211 49.7131 20.0204 50.0116 20.4202 49.2157C20.5202 48.8177 19.7206 48.9172 20.0204 48.7182C20.92 48.8177 21.4197 48.5193 21.9195 48.1213C22.2194 48.6188 23.119 48.4198 23.8186 48.4198C25.3179 47.7234 27.8168 47.9223 29.0162 46.7285C28.0167 45.2362 26.5174 44.3408 25.5178 43.0474Z" fill="#232178"/>
<path fill-rule="evenodd" clip-rule="evenodd" d="M12.3241 40.8588C13.3236 40.8588 14.1232 39.8639 14.9228 39.3664C15.7224 38.869 16.722 38.1726 17.6216 38.67C16.4221 40.3613 13.8234 40.6598 12.524 42.3511C12.6239 45.1367 12.524 48.6188 12.3241 51.6034C10.7248 52.0014 11.1246 48.9173 11.2246 47.226C11.3245 45.1367 11.1246 43.2465 11.3245 41.6547C10.225 40.7593 9.32549 39.7644 8.72577 38.471C10.425 36.8792 11.1246 40.1624 12.3241 40.8588Z" fill="#232178"/>
<path fill-rule="evenodd" clip-rule="evenodd" d="M25.9176 30.2135C31.9148 29.6166 35.3132 33.9941 37.3123 38.272C37.7121 37.3767 38.1119 36.5808 38.1119 35.3869C41.6103 31.0094 45.2086 26.3335 48.4071 21.4586C50.2062 18.7725 51.8055 16.0863 54.1044 14.0965C54.4042 12.1068 56.2034 13.7981 57.203 14.395C59.6018 15.8873 62.1007 18.076 63.9998 19.3694C63.4 21.9561 61.5009 23.8463 59.8017 25.9356C57.003 29.4176 54.0044 32.1038 51.3057 35.7849C50.706 36.6802 49.9064 37.4761 49.2067 38.272C48.507 39.1674 47.7074 39.9633 47.2077 40.7592C46.9078 41.1572 47.0077 41.7541 46.6079 42.0526C46.1081 42.351 44.9087 42.351 44.2091 42.4505C42.21 42.8485 40.2109 43.6444 38.3118 44.4403C38.4118 46.43 37.3123 47.3254 36.6126 48.7183C37.4122 48.5193 39.0115 47.3254 39.5113 46.1316C39.9111 45.3357 39.7111 43.9428 41.1105 44.6392C40.9106 47.027 39.0115 48.4198 37.3123 49.9121C34.7135 52.2998 31.515 54.588 27.9167 55.9808C26.8172 56.3788 25.5178 56.4783 24.5183 57.0752C24.2185 56.9757 23.9186 56.9757 23.6187 56.9757C17.3217 58.9655 10.6248 57.8711 5.92701 55.2844C5.22734 54.8865 4.42777 54.2896 3.7281 53.6926C2.12885 52.5983 0.329682 51.4044 0.0298228 49.1162C-0.270036 45.5346 1.72902 41.9531 3.52818 39.6649C4.22785 38.7695 4.82757 37.8741 5.52724 37.2772C6.82663 36.1828 8.22598 35.4864 9.72528 34.591C11.2246 33.6956 12.424 32.7007 13.7234 32.2033C15.3226 31.5069 17.3217 31.5069 19.1208 31.2084C21.0199 30.8105 22.7191 30.313 24.3184 30.313C24.9181 29.6166 24.8181 28.9202 25.118 28.0248C25.7177 26.5325 27.0171 25.5376 26.8172 23.7468C25.218 23.4484 23.7187 22.9509 22.5193 22.155C21.2199 20.3642 20.3203 18.076 20.6201 15.4894C20.92 13.0022 22.8191 11.4103 24.1185 10.117C25.4179 9.32111 26.9172 8.92316 28.3165 8.12725C29.6159 7.33135 30.8153 6.43596 32.4146 6.1375C35.2132 5.64006 38.2119 6.53545 39.8111 8.12725C40.8106 9.12213 42.21 11.0124 42.11 13.0022C42.0101 15.1909 40.7107 16.4842 39.4113 17.6781C39.5112 18.8719 38.6117 19.0709 38.4117 19.9663C36.0129 22.0556 32.7144 23.0504 28.8163 23.6473C27.6168 25.6371 26.3174 27.4279 25.9176 30.2135ZM35.1133 9.32112C30.0157 7.92829 25.5178 10.2165 23.6187 13.5991C22.919 14.7929 22.0195 17.3796 22.5193 18.8719C22.7192 19.4689 23.4188 20.2648 23.8186 20.5632C25.4179 21.8566 28.1166 22.354 30.9153 22.155C34.4136 21.8566 38.7116 18.3745 40.5108 15.6883C42.11 13.4001 40.9106 10.7139 39.5113 9.12213C37.8121 7.23186 33.714 6.53548 30.9153 8.02779C32.1147 8.12728 33.3141 7.92828 34.4136 8.12725C35.9129 8.32623 37.7121 9.22164 37.7121 10.515C36.6126 10.515 36.0129 9.52009 35.1133 9.32112ZM54.7041 14.594C54.2044 16.0863 53.0049 16.8822 52.1053 17.9766C51.0058 19.3694 50.1063 21.1601 49.1067 22.6525C46.0082 27.2289 42.3099 31.6064 39.4113 36.1828C41.4103 35.1879 42.21 37.8741 43.5094 38.5705C45.2086 37.3766 46.308 35.5859 47.6074 33.8946C48.507 32.7007 49.1067 31.4074 50.1063 30.4125C53.1049 27.2289 55.5037 23.5479 57.9026 19.8668C58.6023 19.5684 58.5023 18.673 59.6018 18.8719C59.7018 19.0709 59.8017 19.1704 59.8017 19.2699C56.4033 23.8463 53.3047 28.8207 49.4066 32.8997C48.3071 35.6854 46.0082 37.2771 44.8088 39.9633C45.3085 40.1623 45.5084 40.6597 46.1081 40.7592C47.6074 38.9685 49.3066 37.3766 50.4061 35.1879C51.2057 34.8895 51.5056 34.0935 52.0054 33.4966C52.3053 33.0987 52.805 32.7007 53.1049 32.4023C53.8045 31.6064 54.3043 30.512 55.1039 29.8156C55.3038 29.6166 55.6037 29.6166 55.7037 29.5171C56.0035 29.2186 56.1034 28.7212 56.4033 28.4228C58.7022 26.0351 61.1011 23.4484 62.8003 20.4638C61.2011 18.9714 59.4019 17.5786 57.5028 16.3848C54.0045 20.5632 51.0058 25.4381 47.9073 30.0145C46.0082 31.4074 44.9087 33.4966 43.1096 34.9889C42.9096 35.7848 42.4099 36.7797 41.4103 36.2823C41.6102 34.989 42.21 34.4915 43.0096 33.5961C43.4094 33.0987 43.9092 32.6012 44.4089 32.1038C46.308 30.0146 47.8073 28.3233 49.4066 25.9356C50.2062 24.8412 51.1058 23.7468 51.8055 22.752C52.7051 21.4586 53.3048 20.1653 54.1044 18.9714C54.3043 18.673 54.8041 18.474 55.004 18.1755C55.5037 17.3796 55.8036 16.3847 56.5033 15.6883C55.7037 15.1909 55.4038 14.594 54.7041 14.594ZM24.6182 31.6064C22.5192 31.6064 19.6206 32.5017 17.8214 32.9992C17.2217 33.1982 16.522 33.1982 15.9223 33.3972C15.6225 33.5961 15.3226 33.8946 15.0228 34.0935C14.623 34.2925 14.2232 34.2925 13.7234 34.4915C10.6249 35.8843 7.42636 38.272 5.72716 40.9582C3.82805 43.7438 2.02885 47.7234 4.92748 50.708C7.52626 52.7972 10.7248 54.986 15.2227 55.0855C19.1209 55.0855 24.7182 53.8916 27.7168 52.3993C28.2166 52.2003 28.6164 51.7029 29.1161 51.5039C29.7158 51.2054 30.3156 51.1059 30.8153 50.907C33.714 49.3152 35.7131 45.8331 36.0129 41.7541C36.1129 39.8638 35.6131 38.1726 35.0134 36.6802C33.8139 36.0833 33.4141 34.6905 32.2147 34.193C31.7149 34.0936 31.9148 34.4915 31.415 34.392C29.5159 32.8002 27.317 31.6064 24.6182 31.6064ZM38.5117 39.0679C39.8111 39.7643 41.0106 40.5602 41.5103 42.0526C42.31 41.6546 43.2095 41.3562 44.2091 41.2567C44.2091 40.7592 43.7093 40.7592 43.3095 40.6597C42.4099 38.9685 40.8106 37.8741 39.3113 36.6802C39.0115 37.3766 38.8116 38.272 38.5117 39.0679ZM1.72904 47.3254C1.72904 47.5244 2.02888 47.8229 2.02888 48.1213C2.4287 50.907 4.02794 53.1952 6.52677 53.4936C4.82757 51.8024 2.62858 50.509 2.12881 47.8229C1.62905 45.0372 3.7281 42.749 4.72763 40.4608C4.82758 40.4608 4.82754 40.3613 4.62764 40.3613C3.4282 42.0526 1.52913 44.6393 1.72904 47.3254ZM35.0134 48.8177C36.1129 47.8229 37.2123 46.828 37.3123 44.8382C37.0124 44.7388 36.8125 44.6392 36.6126 44.4403C36.0129 45.6341 35.3132 47.6239 35.0134 48.8177ZM30.2156 53.3942C30.9153 53.3942 31.2152 52.9962 31.8149 52.8967C31.8149 52.7972 31.8149 52.5983 31.7149 52.5983C31.2152 52.8967 30.5155 52.9962 30.2156 53.3942ZM27.7168 53.9911C26.9172 54.787 24.7182 54.8865 24.2185 55.6824C25.8177 55.2844 27.9167 55.1849 28.8163 53.9911C28.3165 53.9911 28.0167 53.9911 27.7168 53.9911ZM19.1208 56.5778C20.0204 56.5778 21.1199 56.7767 21.3198 56.0803C20.5202 55.8814 19.7205 56.3788 19.1208 56.5778Z" fill="#232178"/>
</svg>

<svg width="64" height="64" fill="none" xmlns="http://www.w3.org/2000/svg"><path fill-rule="evenodd" clip-rule="evenodd" d="M31.515 18.673c-.2-.497-.4-1.094-.3-1.79.1-1.792 1.4-4.577 2.799-3.383-.5 1.193-2.1 2.387-1.4 4.178 1.2-.597 2.7-1.492 2.9-2.786.399-1.99-1.4-2.984-2.9-2.288-.5.2-.5.896-1.099.796-.2-1.393 2.399-2.786 3.898-1.89.6.398 1.2 1.592 1.3 2.188.1 2.09-2.4 4.776-3.699 5.174-.7.298-1 .1-1.499-.2zm-4.898-5.472c.4.1.7.299.9.498.1 1.094.3 2.188.4 3.283 1.2-.2 1.2-3.184 2.998-2.786-.9 1.99-1.799 3.98-3.398 5.173-1.3-.895-.6-3.78-1.5-5.073-.899 1.293-1.599 2.586-1.799 4.576-.3 0-.4.199-.5.398-.3-.1-.5-.398-.699-.498.5-2.487 1.8-4.079 2.299-6.566.8-.298 1.4 0 1.3.995zm3.199 24.076c.5 2.288-3.099 1.99-3.199 4.278 0 .398.2.895.4 1.294.8 1.392 2.599 2.586 3.399 3.979-.9 1.194-2.5 1.592-4.698 1.99-1.4.199-2.999-.1-3.998.298-1 .398-1.5 1.592-2.8 1.89-4.997-.696-1.698-6.367-.499-8.854-.5-.497-2.099.398-2.199-.696.8-.995 3.299-.796 4.798-.796 0 .398-.3.497-.2.995-1.2.696-1.8 1.99-2.299 3.382 2.599-.199 4.598-1.79 6.897-2.587-.5-2.188 2.099-3.88 3.898-4.874.1-.1.2-.299.5-.299zm-4.298 5.77c-1.9 1.393-3.998 2.488-6.597 3.184-.3-.1-.3-.497-.6-.597-.5.895-1.2 2.885-.1 3.78.4.3 1.8.598 2.2-.198.1-.398-.7-.299-.4-.498.899.1 1.399-.199 1.898-.597.3.498 1.2.299 1.9.299 1.499-.697 3.998-.498 5.197-1.692-1-1.492-2.499-2.387-3.498-3.68z" fill="#232178"/><path fill-rule="evenodd" clip-rule="evenodd" d="M12.324 40.859c1 0 1.8-.995 2.599-1.493.8-.497 1.799-1.193 2.699-.696-1.2 1.691-3.799 1.99-5.098 3.681.1 2.786 0 6.268-.2 9.252-1.6.398-1.2-2.686-1.1-4.377.1-2.09-.1-3.98.1-5.571-1.099-.896-1.999-1.89-2.598-3.184 1.699-1.592 2.399 1.691 3.598 2.388z" fill="#232178"/><path fill-rule="evenodd" clip-rule="evenodd" d="M25.918 30.213c5.997-.596 9.395 3.781 11.394 8.059.4-.895.8-1.691.8-2.885 3.498-4.378 7.097-9.053 10.295-13.928 1.8-2.686 3.399-5.373 5.697-7.362.3-1.99 2.1-.299 3.099.298 2.399 1.492 4.898 3.681 6.797 4.974-.6 2.587-2.5 4.477-4.198 6.567-2.799 3.482-5.798 6.168-8.496 9.849-.6.895-1.4 1.691-2.1 2.487-.699.895-1.499 1.691-1.998 2.487-.3.398-.2.995-.6 1.294-.5.298-1.7.298-2.399.398-1.999.398-3.998 1.193-5.897 1.99.1 1.989-1 2.884-1.7 4.277.8-.199 2.4-1.393 2.9-2.586.4-.796.2-2.19 1.599-1.493-.2 2.388-2.1 3.78-3.799 5.273-2.598 2.388-5.797 4.676-9.395 6.069-1.1.398-2.4.497-3.399 1.094-.3-.1-.6-.1-.9-.1-6.296 1.99-12.993.896-17.691-1.69-.7-.398-1.5-.995-2.199-1.592C2.128 52.598.33 51.404.03 49.116c-.3-3.581 1.699-7.163 3.498-9.451.7-.895 1.3-1.79 2-2.388 1.299-1.094 2.698-1.79 4.197-2.686 1.5-.895 2.699-1.89 3.998-2.388 1.6-.696 3.599-.696 5.398-.995 1.899-.397 3.598-.895 5.197-.895.6-.696.5-1.393.8-2.288.6-1.492 1.9-2.487 1.7-4.278-1.6-.299-3.1-.796-4.299-1.592-1.3-1.79-2.199-4.079-1.899-6.666.3-2.487 2.2-4.079 3.498-5.372 1.3-.796 2.8-1.194 4.199-1.99 1.299-.796 2.498-1.691 4.098-1.99 2.798-.497 5.797.398 7.396 1.99 1 .995 2.399 2.885 2.299 4.875-.1 2.189-1.4 3.482-2.699 4.676.1 1.194-.8 1.393-1 2.288-2.398 2.09-5.697 3.084-9.595 3.681-1.2 1.99-2.499 3.78-2.898 6.567zm9.195-20.892c-5.097-1.393-9.595.896-11.494 4.278-.7 1.194-1.6 3.78-1.1 5.273.2.597.9 1.393 1.3 1.691 1.599 1.294 4.298 1.791 7.096 1.592 3.499-.298 7.797-3.78 9.596-6.467 1.599-2.288.4-4.974-1-6.566-1.699-1.89-5.797-2.587-8.596-1.094 1.2.1 2.4-.1 3.499.1 1.499.198 3.298 1.094 3.298 2.387-1.1 0-1.7-.995-2.599-1.194zm19.591 5.273c-.5 1.492-1.7 2.288-2.599 3.383-1.1 1.392-1.999 3.183-2.998 4.675-3.099 4.577-6.797 8.954-9.696 13.53 2-.994 2.799 1.692 4.098 2.389 1.7-1.194 2.799-2.985 4.098-4.676.9-1.194 1.5-2.488 2.5-3.483 2.998-3.183 5.397-6.864 7.796-10.545.7-.299.6-1.194 1.699-.995.1.199.2.298.2.398-3.399 4.576-6.497 9.55-10.395 13.63-1.1 2.785-3.399 4.377-4.598 7.063.5.2.7.697 1.3.796 1.498-1.79 3.198-3.382 4.297-5.571.8-.299 1.1-1.095 1.6-1.691.3-.398.799-.796 1.099-1.095.7-.796 1.2-1.89 1.999-2.586.2-.2.5-.2.6-.299.3-.298.4-.796.7-1.094 2.298-2.388 4.697-4.975 6.396-7.96a35.592 35.592 0 00-5.297-4.078c-3.498 4.178-6.497 9.053-9.596 13.63-1.899 1.392-2.998 3.482-4.797 4.974-.2.796-.7 1.79-1.7 1.293.2-1.293.8-1.79 1.6-2.686.4-.497.9-.995 1.399-1.492 1.899-2.09 3.398-3.78 4.998-6.168.8-1.095 1.699-2.19 2.399-3.184.9-1.293 1.499-2.587 2.298-3.78.2-.299.7-.498.9-.797.5-.795.8-1.79 1.5-2.487-.8-.497-1.1-1.094-1.8-1.094zM24.618 31.606c-2.099 0-4.997.896-6.797 1.393-.6.2-1.299.2-1.899.398-.3.2-.6.498-.9.697-.399.198-.799.198-1.299.398-3.098 1.392-6.297 3.78-7.996 6.466-1.899 2.786-3.698 6.765-.8 9.75 2.6 2.09 5.798 4.278 10.296 4.378 3.898 0 9.495-1.194 12.494-2.687.5-.199.9-.696 1.4-.895.599-.299 1.199-.398 1.698-.597 2.899-1.592 4.898-5.074 5.198-9.153.1-1.89-.4-3.581-1-5.074-1.2-.597-1.599-1.99-2.798-2.487-.5-.1-.3.299-.8.199-1.9-1.592-4.098-2.786-6.797-2.786zm13.894 7.462c1.3.696 2.499 1.492 2.998 2.985a7.75 7.75 0 012.7-.796c0-.498-.5-.498-.9-.597-.9-1.691-2.5-2.786-3.999-3.98-.3.697-.5 1.592-.8 2.388zM1.729 47.325c0 .2.3.498.3.796.4 2.786 1.999 5.074 4.498 5.373-1.7-1.692-3.898-2.985-4.398-5.671-.5-2.786 1.6-5.074 2.599-7.362.1 0 .1-.1-.1-.1-1.2 1.692-3.099 4.278-2.899 6.964zm33.284 1.493c1.1-.995 2.2-1.99 2.3-3.98-.3-.1-.5-.199-.7-.398-.6 1.194-1.3 3.184-1.6 4.378zm-4.797 4.576c.7 0 1-.398 1.599-.497 0-.1 0-.299-.1-.299-.5.299-1.2.398-1.5.796zm-2.5.597c-.799.796-2.998.895-3.498 1.691 1.6-.398 3.699-.497 4.598-1.69h-1.1zm-8.595 2.587c.9 0 1.999.199 2.199-.498-.8-.199-1.6.299-2.2.498z" fill="#232178"/></svg>
